!! 00000] TT[00
!! NN
!!!OTL: Zhengyue shiwu na yitian
!!!ARE: Xinjiang, Lasa
!! Ethnic Group: Zang
!! II, 297
!!!SCT: C0237
!!!YEM: Copyright 1995, estate of Helmut Schaffrath.
**kern
*ICvox
*Ivox
!! Mixed meters:  2/4; 1/4
*M3/4
*k[f#c#]
*D:
{8ee
8ee
8dd
8dd
=1
8b
4.a}
=2
{8a
8dd
8dd
8ee
=3
4dd
4dd
=4
8b
8a
8f#
8e
=5
8d
8B
4d}
=6
{8d
8f#
8e
8d
=7
8B
4.B
=8
4dd
4ee
=9
4ee
4dd}
=10
{8b
8a
8f#
8e
=11
8d
8B
4d}
==
!!!AGN: Wuge, Dui xie. Wencheng gongzhu jiazang
!! Dieses Lied wurde einer Koenigstochter der Tang-Dynastie zur
!!    Begruessung gesungen, als sie nach Tibet kam, um dort
!!    einzuheiraten.
!!    Umfangreiche Vor-, Zwischen- und Nachspiele weggelassen.
!!!ONB: ESAC (Essen Associative Code) Database: CHINA
!!!AMT: irregular
!!!AIN: vox
!!!EED: Helmut Schaffrath
!!!EEV: 1.0
*-
